images/logos/mw_smiley_face.svg

<?xml version="1.0" encoding="UTF-8"?>
<!DOCTYPE svg  PUBLIC '-//W3C//DTD SVG 1.1//EN'  'http://www.w3.org/Graphics/SVG/1.1/DTD/svg11.dtd'>
<svg clip-rule="evenodd" fill-rule="evenodd" stroke-linejoin="round" stroke-miterlimit="1.4142" version="1.1" viewBox="0 0 244 244" xml:space="preserve" xmlns="http://www.w3.org/2000/svg">
    <g transform="matrix(1.038 0 0 1.038 -19.174 -16.06)">
            <circle cx="136" cy="133" r="92"/>
    </g>
    <g transform="matrix(1.069 0 0 1.069 -29.735 -25.25)">
            <circle cx="141.75" cy="137.75" r="79.75" fill="#fef102"/>
    </g>
    <g transform="translate(.20887 -2)">
        <path d="m162 92c-2.034-4.566-3.929-13.587-9.145-15.593-6.715-2.582-10.866 14.322-11.855 18.593h-1c-1.693-7.318-3.965-17.69-12-20-3.72 15.624 3.886 32.479 11 46 7.596-3.63 11.297-14.998 12-23h1l8 24c6.436-1.85 8.675-8.219 10.999-14 4.989-12.408 9.175-27.668 6.001-41-9.605 2.72-12.527 16.455-15 25m-96 32c8.595-4.104 12.685-17.094 14-26h1c1.017 4.293 3.736 15.368 9.1 16.079 6.834 0.904 10.417-14.26 10.9-19.079h1c2.179 7.529 4.475 17.32 12 21 2.776-11.66-0.548-24.095-4.812-35-1.096-2.804-3.347-10.364-7.213-10.364-6.334 0-9.895 16.696-10.975 21.364h-1l-8-24c-14.072 6.72-21.716 42.453-16 56m-15 12c10.443 45.551 58.612 71.374 102 52.138 15.791-7.001 28.317-19.475 35.539-35.138 1.866-4.047 5.531-11.372 3.394-16.682-2.128-5.289-22.767 3.353-27.924 5.61-0.724 0.322-1.235 0.99-1.354 1.774-0.169 1.109 0.131 2.239 0.83 3.118 0.698 0.879 1.731 1.427 2.85 1.513 3.781 0.291 8.665 0.667 8.665 0.667-15.687 30.365-58.101 43.791-88 19.532-6.692-5.429-12.662-11.88-16.68-19.532-1.943-3.7-3.745-8.432-7.048-10.971-3.173-2.44-7.987-3.276-12.272-2.029z" fill-rule="nonzero"/>
    </g>
</svg>

<?xml version="1.0" encoding="UTF-8" standalone="no"?>
<!DOCTYPE svg PUBLIC "-//W3C//DTD SVG 1.1//EN" "http://www.w3.org/Graphics/SVG/1.1/DTD/svg11.dtd">
<svg width="100%" height="100%" viewBox="0 0 244 244" version="1.1" xmlns="http://www.w3.org/2000/svg" xmlns:xlink="http://www.w3.org/1999/xlink" xml:space="preserve" xmlns:serif="http://www.serif.com/" style="fill-rule:evenodd;clip-rule:evenodd;stroke-linejoin:round;stroke-miterlimit:1.41421;">
    <g transform="matrix(1.03804,0,0,1.03804,-19.1739,-16.0598)">
        <g id="Layer1">
            <circle cx="136" cy="133" r="92"/>
        </g>
    </g>
    <g transform="matrix(1.06897,0,0,1.06897,-29.7347,-25.25)">
        <g id="Layer2">
            <circle cx="141.75" cy="137.75" r="79.75" style="fill:rgb(254,241,2);"/>
        </g>
    </g>
    <g transform="matrix(1,0,0,1,0.208873,-2)">
        <path d="M162,92C159.966,87.434 158.071,78.413 152.855,76.407C146.14,73.825 141.989,90.729 141,95L140,95C138.307,87.682 136.035,77.31 128,75C124.28,90.624 131.886,107.479 139,121C146.596,117.37 150.297,106.002 151,98L152,98L160,122C166.436,120.15 168.675,113.781 170.999,108C175.988,95.592 180.174,80.332 177,67C167.395,69.72 164.473,83.455 162,92M66,124C74.595,119.896 78.685,106.906 80,98L81,98C82.017,102.293 84.736,113.368 90.1,114.079C96.934,114.983 100.517,99.819 101,95L102,95C104.179,102.529 106.475,112.32 114,116C116.776,104.34 113.452,91.905 109.188,81C108.092,78.196 105.841,70.636 101.975,70.636C95.641,70.636 92.08,87.332 91,92L90,92L82,68C67.928,74.72 60.284,110.453 66,124M51,136C61.443,181.551 109.612,207.374 153,188.138C168.791,181.137 181.317,168.663 188.539,153C190.405,148.953 194.07,141.628 191.933,136.318C189.805,131.029 169.166,139.671 164.009,141.928C163.285,142.25 162.774,142.918 162.655,143.702C162.655,143.702 162.655,143.702 162.655,143.702C162.486,144.811 162.786,145.941 163.485,146.82C164.183,147.699 165.216,148.247 166.335,148.333C170.116,148.624 175,149 175,149C159.313,179.365 116.899,192.791 87,168.532C80.308,163.103 74.338,156.652 70.32,149C68.377,145.3 66.575,140.568 63.272,138.029C60.099,135.589 55.285,134.753 51,136Z" style="fill-rule:nonzero;"/>
    </g>
</svg>
